img/ui-arrow-expand-2.svg

<svg fill="none" height="21" viewBox="0 0 21 21" width="21" xmlns="http://www.w3.org/2000/svg"><g fill="#bbb"><path d="m.0976563 20.1543c0 .4142.3357867.75.7499997.75h6.750004c.41421 0 .75-.3358.75-.75s-.33579-.75-.75-.75h-6v-6c0-.4142-.33579-.75-.750004-.75s-.7499999.3358-.7499999.75zm8.9431237-7.1325c.2929-.2929.2929-.7677 0-1.0606-.29289-.2929-.76776-.2929-1.06066 0zm-7.66279 7.6628 7.66279-7.6628-1.06066-1.0606-7.662794 7.6628z"/><path d="m20.75 1c0-.414214-.3358-.75-.75-.75h-6.75c-.4142 0-.75.335786-.75.75 0 .41421.3358.75.75.75h6v6c0 .41421.3358.75.75.75s.75-.33579.75-.75zm-8.9431 7.13247c-.2929.29289-.2929.76776 0 1.06066.2929.29289.7677.29289 1.0606 0zm7.6628-7.6628-7.6628 7.6628 1.0606 1.06066 7.6628-7.6628z"/></g></svg>

<svg width="21" height="21" viewBox="0 0 21 21" fill="none" xmlns="http://www.w3.org/2000/svg">
<path d="M0.0976563 20.1543C0.0976563 20.5685 0.433443 20.9043 0.847656 20.9043L7.59766 20.9043C8.01187 20.9043 8.34766 20.5685 8.34766 20.1543C8.34766 19.7401 8.01187 19.4043 7.59766 19.4043L1.59766 19.4043L1.59766 13.4043C1.59766 12.9901 1.26187 12.6543 0.847656 12.6543C0.433442 12.6543 0.0976561 12.9901 0.0976561 13.4043L0.0976563 20.1543ZM9.04078 13.0218C9.33368 12.7289 9.33368 12.2541 9.04078 11.9612C8.74789 11.6683 8.27302 11.6683 7.98012 11.9612L9.04078 13.0218ZM1.37799 20.6846L9.04078 13.0218L7.98012 11.9612L0.317326 19.624L1.37799 20.6846Z" fill="#BBBBBB"/>
<path d="M20.75 1C20.75 0.585786 20.4142 0.25 20 0.25L13.25 0.25C12.8358 0.25 12.5 0.585786 12.5 1C12.5 1.41421 12.8358 1.75 13.25 1.75L19.25 1.75L19.25 7.75C19.25 8.16421 19.5858 8.5 20 8.5C20.4142 8.5 20.75 8.16421 20.75 7.75L20.75 1ZM11.8069 8.13247C11.514 8.42536 11.514 8.90023 11.8069 9.19313C12.0998 9.48602 12.5746 9.48602 12.8675 9.19313L11.8069 8.13247ZM19.4697 0.46967L11.8069 8.13247L12.8675 9.19313L20.5303 1.53033L19.4697 0.46967Z" fill="#BBBBBB"/>
</svg>
